img/add_col_before.svg

<svg xmlns="http://www.w3.org/2000/svg" width="24" height="24" viewBox="0 0 24 24">
  <path d="M19,14 C21.7600532,14.0033061 23.9966939,16.2399468 24,19 C24,21.7614237 21.7614237,24 19,24 C16.2385763,24 14,21.7614237 14,19 C14,16.2385763 16.2385763,14 19,14 Z M21.5,19.9375 C22.017767,19.9375 22.4375,19.517767 22.4375,19 C22.4375,18.482233 22.017767,18.0625 21.5,18.0625 L20.25,18.0625 C20.077411,18.0625 19.9375,17.922589 19.9375,17.75 L19.9375,16.5 C19.9375,15.982233 19.517767,15.5625 19,15.5625 C18.482233,15.5625 18.0625,15.982233 18.0625,16.5 L18.0625,17.75 C18.0625,17.922589 17.922589,18.0625 17.75,18.0625 L16.5,18.0625 C15.982233,18.0625 15.5625,18.482233 15.5625,19 C15.5625,19.517767 15.982233,19.9375 16.5,19.9375 L17.75,19.9375 C17.922589,19.9375 18.0625,20.077411 18.0625,20.25 L18.0625,21.5 C18.0625,22.017767 18.482233,22.4375 19,22.4375 C19.517767,22.4375 19.9375,22.017767 19.9375,21.5 L19.9375,20.25 C19.9375,20.077411 20.077411,19.9375 20.25,19.9375 L21.5,19.9375 Z M2,19 C2,20.6568542 3.34314575,22 5,22 C6.65685425,22 8,20.6568542 8,19 L8,5 C8,3.34314575 6.65685425,2 5,2 C3.34314575,2 2,3.34314575 2,5 L2,19 Z M-2.7585502e-16,19 L5.81397739e-16,5 C-1.37692243e-16,2.23857625 2.23857625,0 5,0 C7.76142375,0 10,2.23857625 10,5 L10,19 C10,21.7614237 7.76142375,24 5,24 C2.23857625,24 4.43234962e-16,21.7614237 -2.7585502e-16,19 Z"/>
</svg>

<svg width="24" height="24" viewBox="0 0 24 24" xmlns="http://www.w3.org/2000/svg"><path d="m19 14c2.7601 0.0033061 4.9967 2.2399 5 5 0 2.7614-2.2386 5-5 5s-5-2.2386-5-5 2.2386-5 5-5zm2.5 5.9375c0.51777 0 0.9375-0.41973 0.9375-0.9375s-0.41973-0.9375-0.9375-0.9375h-1.25c-0.17259 0-0.3125-0.13991-0.3125-0.3125v-1.25c0-0.51777-0.41973-0.9375-0.9375-0.9375s-0.9375 0.41973-0.9375 0.9375v1.25c0 0.17259-0.13991 0.3125-0.3125 0.3125h-1.25c-0.51777 0-0.9375 0.41973-0.9375 0.9375s0.41973 0.9375 0.9375 0.9375h1.25c0.17259 0 0.3125 0.13991 0.3125 0.3125v1.25c0 0.51777 0.41973 0.9375 0.9375 0.9375s0.9375-0.41973 0.9375-0.9375v-1.25c0-0.17259 0.13991-0.3125 0.3125-0.3125h1.25zm-19.5-0.9375c0 1.6569 1.3431 3 3 3s3-1.3431 3-3v-14c0-1.6569-1.3431-3-3-3s-3 1.3431-3 3v14zm-2 0 8.5725e-16 -14c-7.1909e-16 -2.7614 2.2386-5 5-5s5 2.2386 5 5v14c0 2.7614-2.2386 5-5 5s-5-2.2386-5-5z"/></svg>
